X: 29166
T: New Baptist, The
R: hornpipe
M: 4/4
K: Gmajor
(3B=c^c[P:A]|:"G"d^cdg "C"e=ceg|"D"agfe "G"d2 Bc|d^cdg "C"ed=cB|"Am"edcB "D"A2 (3def|
"G"g2ag "D"f2gf|"C"egfe "G"dcB2|"Em"gfed ed"D"cA|1 "G"(3BcB G2 G2 (3Bc^c:|2 "G"(3BcB G2 G3 F||
|:"Em"E/E/EEF G2GA|BeeB edBA|E2EF GFGB|"D"AGFA "G"BAGF|
"Em"E/E/EEF G2GA|BeeB eBef|gfed BAGF|1 EG"D"FD "Em"E2 FD:|2 "Em"EG"D"FD "G"G2 B2||

